; generated by PrusaSlicer 2.5.0+MacOS-x64 on 2022-09-25 at 17:39:53 UTC


;
;
; 

; external perimeters extrusion width = 0.60mm
; perimeters extrusion width = 0.50mm
; infill extrusion width = 0.50mm
; solid infill extrusion width = 0.50mm
; top infill extrusion width = 0.45mm
; support material extrusion width = 0.38mm
; first layer extrusion width = 0.42mm

M73 P0 R72
M73 Q0 S73
M201 X1000 Y1000 Z200 E5000 ; sets maximum accelerations, mm/sec^2
M203 X200 Y200 Z12 E120 ; sets maximum feedrates, mm / sec
M204 P1250 R1250 T1250 ; sets acceleration (P, T) and retract acceleration (R), mm/sec^2
M205 X8.00 Y8.00 Z0.40 E4.50 ; sets the jerk limits, mm/sec
M205 S0 T0 ; sets the minimum extruding and travel feed rate, mm/sec
M107
;TYPE:Custom
M862.3 P "MK3S" ; printer model check
M862.1 P0.4 ; nozzle diameter check
M115 U3.11.0 ; tell printer latest fw version
G90 ; use absolute coordinates
M83 ; extruder relative mode
M104 S215 ; set extruder temp
M140 S60 ; set bed temp
M190 S60 ; wait for bed temp
M109 S215 ; wait for extruder temp
G28 W ; home all without mesh bed level
G80 ; mesh bed leveling

G1 Z0.2 F720
G1 Y-3 F1000 ; go outside print area
G92 E0
G1 X60 E9 F1000 ; intro line
G1 X100 E12.5 F1000 ; intro line

G92 E0
M221 S95

; Don't change E values below. Excessive value can damage the printer.

M907 E538 ; set extruder motor current
G21 ; set units to millimeters
G90 ; use absolute coordinates
M83 ; use relative distances for extrusion
M900 K0.05 ; Filament gcode LA 1.5
M900 K30 ; Filament gcode LA 1.0
M107
;LAYER_CHANGE
;Z:0.2
;HEIGHT:0.2
;BEFORE_LAYER_CHANGE
G92 E0.0
;0.2


G1 E-.8 F2100
G1 Z.4 F720
;AFTER_LAYER_CHANGE
;0.2
G1 X55.289 Y55.289 F10800
G1 Z.2 F720
G1 E.8 F2100
M204 S800
;TYPE:Skirt/Brim
;WIDTH:0.42
G1 F1200
G1 X75.506 Y35.073 E.89644
G1 X77.187 Y34.376 E.05704
G1 X87.713 Y34.376 E.33006
G1 X89.394 Y35.073 E.05704
G1 X133.391 Y79.069 E1.95089
G1 X134.087 Y80.75 E.05704
G1 X134.087 Y91.277 E.33006
G1 X133.391 Y92.958 E.05704
G1 X89.394 Y136.955 E1.95089
G1 X87.713 Y137.651 E.05704
G1 X77.187 Y137.651 E.33006
G1 X75.506 Y136.955 E.05704
G1 X31.509 Y92.958 E1.95089
G1 X30.813 Y91.277 E.05704
G1 X30.813 Y80.75 E.33006
G1 X31.509 Y79.069 E.05704
G1 X55.247 Y55.332 E1.05257
M204 S1000
; printing object Body1.stl id:0 copy 0
;WIPE_START
G1 F8640
G1 X57.574 Y53.004 E-.76
;WIPE_END
G1 E-.04 F2100
G1 Z.6 F720
G1 X80.23 Y58.226 F10800
G1 Z.2 F720
G1 E.8 F2100
M204 S800
;TYPE:Support material interface
;WIDTH:0.38
G1 F1200
G1 X80.134 Y58.226 E.00267
G1 X80.134 Y62.857 E.12981
G1 X80.388 Y62.857 E.0071
G1 X80.388 Y58.226 E.12981
G1 X80.903 Y58.226 E.01445
G1 X80.903 Y60.805 E.07229
G1 X80.838 Y60.93 E.00395
G1 X80.67 Y61.473 E.01593
G1 X80.64 Y61.627 E.00438
M204 S1000
;WIPE_START
G1 F8640
G1 X80.67 Y61.473 E-.03612
G1 X80.838 Y60.93 E-.13125
G1 X80.903 Y60.805 E-.03257
G1 X80.903 Y58.38 E-.56006
;WIPE_END
G1 E-.04 F2100
G1 Z.6 F720
G1 X80.982 Y60.668 F10800
G1 Z.2 F720
G1 E.8 F2100
M204 S800
G1 F1200
G1 X81.051 Y60.562 E.00356
G1 X81.172 Y60.433 E.00495
G1 X81.279 Y60.365 E.00357
G1 X81.419 Y60.317 E.00412
G1 X81.419 Y58.226 E.05862
G1 X81.934 Y58.226 E.01445
G1 X81.934 Y60.251 E.05677
G1 X82.45 Y60.251 E.01445
G1 X82.45 Y58.226 E.05677
G1 X82.966 Y58.226 E.01445
G1 X82.966 Y60.251 E.05677
G1 X83.242 Y60.251 E.00774
G1 X83.481 Y60.318 E.00697
G1 X83.481 Y58.226 E.05863
G1 X83.839 Y58.226 E.01003
M204 S1000
;WIPE_START
G1 F8640
G1 X83.481 Y58.226 E-.08262
G1 X83.481 Y60.318 E-.48299
G1 X83.242 Y60.251 E-.0574
G1 X82.966 Y60.251 E-.06375
G1 X82.966 Y59.934 E-.07325
;WIPE_END
G1 E-.04 F2100
G1 Z.6 F720
G1 X83.236 Y60.623 F10800
G1 Z.2 F720
G1 E.8 F2100
M204 S800
;TYPE:Support material
;WIDTH:0.42
G1 F1200
G1 X83.459 Y60.699 E.00739
G1 X83.576 Y60.812 E.00511
G1 X83.715 Y61.059 E.00888
G1 X83.846 Y61.48 E.01382
G1 X83.722 Y61.35 E.00561
G1 X83.412 Y61.179 E.01112
G1 X83.272 Y61.143 E.00454
G1 X81.627 Y61.143 E.05157
G1 X81.487 Y61.179 E.00454
G1 X81.177 Y61.35 E.01112
G1 X81.053 Y61.48 E.00561
G1 X81.19 Y61.044 E.01434
G1 X81.323 Y60.812 E.00836
G1 X81.44 Y60.699 E.00511
G1 X81.687 Y60.619 E.00814
G1 X83.18 Y60.619 E.04679
M204 S1000
;WIPE_START
G1 F8640
G1 X81.687 Y60.619 E-.34459
G1 X81.44 Y60.699 E-.05997
G1 X81.323 Y60.812 E-.03763
G1 X81.19 Y61.044 E-.06159
G1 X81.053 Y61.48 E-.1056
G1 X81.177 Y61.35 E-.04135
G1 X81.487 Y61.179 E-.08187
G1 X81.602 Y61.149 E-.0274
;WIPE_END
G1 E-.04 F2100
G1 Z.6 F720
G1 X84.141 Y61.19 F10800
G1 Z.2 F720
G1 E.8 F2100
M204 S800
;TYPE:Support material interface
;WIDTH:0.38
G1 F1200
G1 X84.061 Y60.93 E.0076
G1 X83.997 Y60.807 E.00389
G1 X83.997 Y58.226 E.07234
G1 X84.513 Y58.226 E.01445
G1 X84.513 Y62.857 E.12981
G1 X84.348 Y62.857 E.00462
G1 X84.332 Y62.498 E.01009
M204 S1000
;WIPE_START
G1 F8640
G1 X84.348 Y62.857 E-.08314
G1 X84.513 Y62.857 E-.03807
G1 X84.513 Y60.091 E-.63879
;WIPE_END
G1 E-.04 F2100
G1 Z.6 F720
G1 X80.23 Y67.489 F10800
G1 Z.2 F720
G1 E.8 F2100
M204 S800
G1 F1200
G1 X80.134 Y67.489 E.00267
G1 X80.134 Y69.804 E.0649
G1 X80.388 Y69.804 E.0071
G1 X80.388 Y67.489 E.0649
G1 X80.801 Y67.489 E.01158
G1 X80.903 Y67.741 E.00763
G1 X80.903 Y69.804 E.05783
G1 X81.419 Y69.804 E.01445
G1 X81.419 Y68.2 E.04497
G1 X81.656 Y68.267 E.00691
G1 X81.934 Y68.267 E.00781
G1 X81.934 Y69.804 E.04308
G1 X82.45 Y69.804 E.01445
G1 X82.45 Y68.267 E.04308
G1 X82.966 Y68.267 E.01445
G1 X82.966 Y69.804 E.04308
G1 X83.481 Y69.804 E.01445
M73 Q0 S72
G1 X83.481 Y68.199 E.04498
G1 X83.626 Y68.149 E.00429
G1 X83.733 Y68.077 E.00362
G1 X83.908 Y67.885 E.00727
G1 X83.997 Y67.739 E.00481
G1 X83.997 Y69.804 E.05789
G1 X84.513 Y69.804 E.01445
G1 X84.513 Y67.489 E.0649
G1 X84.766 Y67.489 E.0071
G1 X84.766 Y69.804 E.0649
G1 X84.67 Y69.804 E.00267
M204 S1000
;WIPE_START
G1 F8640
G1 X84.766 Y69.804 E-.02202
G1 X84.766 Y67.489 E-.53469
G1 X84.513 Y67.489 E-.05846
G1 X84.513 Y68.116 E-.14483
;WIPE_END
G1 E-.04 F2100
G1 Z.6 F720
G1 X84.67 Y53.595 F10800
G1 Z.2 F720
G1 E.8 F2100
M204 S800
G1 F1200
G1 X84.766 Y53.595 E.00267
G1 X84.766 Y48.964 E.12981
G1 X84.513 Y48.964 E.0071
G1 X84.513 Y53.595 E.12981
G1 X83.997 Y53.595 E.01445
G1 X83.997 Y51.239 E.06603
G1 X84.063 Y51.108 E.00411
G1 X84.119 Y50.921 E.00547
M204 S1000
G1 X83.766 Y50.816 F10800
M204 S800
;TYPE:Support material
;WIDTH:0.42
G1 F1200
G1 X83.716 Y50.984 E.0055
G1 X83.631 Y51.14 E.00557
G1 X83.492 Y51.296 E.00657
G1 X83.237 Y51.395 E.00857
G1 X81.687 Y51.399 E.04861
G1 X81.438 Y51.317 E.00821
G1 X81.278 Y51.154 E.00717
G1 X81.183 Y50.984 E.00611
G1 X81.053 Y50.549 E.01423
G1 X81.154 Y50.651 E.00451
G1 X81.481 Y50.839 E.0118
G1 X81.625 Y50.877 E.00468
G1 X83.274 Y50.877 E.05171
G1 X83.418 Y50.839 E.00468
G1 X83.745 Y50.651 E.0118
G1 X83.846 Y50.549 E.00451
G1 X83.782 Y50.761 E.00696
M204 S1000
G1 X83.916 Y51.374 F10800
M204 S800
;TYPE:Support material interface
;WIDTH:0.38
G1 F1200
G1 X83.733 Y51.577 E.00766
G1 X83.626 Y51.649 E.00362
G1 X83.481 Y51.699 E.00429
G1 X83.481 Y53.595 E.05313
G1 X82.966 Y53.595 E.01445
G1 X82.966 Y51.767 E.05123
G1 X82.45 Y51.767 E.01445
G1 X82.45 Y53.595 E.05123
G1 X81.934 Y53.595 E.01445
G1 X81.934 Y51.767 E.05123
G1 X81.656 Y51.767 E.00781
G1 X81.419 Y51.7 E.00691
G1 X81.419 Y53.595 E.05312
G1 X80.903 Y53.595 E.01445
G1 X80.903 Y51.241 E.06598
G1 X80.836 Y51.108 E.00417
G1 X80.669 Y50.547 E.0164
G1 X80.64 Y50.394 E.00436
M204 S1000
;WIPE_START
G1 F8640
G1 X80.669 Y50.547 E-.03592
G1 X80.836 Y51.108 E-.1351
G1 X80.903 Y51.241 E-.03435
G1 X80.903 Y53.595 E-.54354
G1 X80.951 Y53.595 E-.01108
;WIPE_END
G1 E-.04 F2100
G1 Z.6 F720
G1 X80.553 Y49.31 F10800
G1 Z.2 F720
G1 E.8 F2100
M204 S800
G1 F1200
G1 X80.551 Y48.964 E.0097
G1 X80.388 Y48.964 E.00459
G1 X80.388 Y53.595 E.12981
G1 X80.134 Y53.595 E.0071
G1 X80.134 Y48.964 E.12981
G1 X80.23 Y48.964 E.00267
M204 S1000
;WIPE_START
G1 F8640
G1 X80.134 Y48.964 E-.02202
G1 X80.134 Y52.16 E-.73798
;WIPE_END
G1 E-.04 F2100
G1 Z.6 F720
G1 X84.67 Y44.332 F10800
G1 Z.2 F720
G1 E.8 F2100
M204 S800
G1 F1200
G1 X84.766 Y44.332 E.00267
G1 X84.766 Y42.017 E.0649
G1 X84.513 Y42.017 E.0071
G1 X84.513 Y44.332 E.0649
G1 X84.012 Y44.332 E.01404
G1 X83.997 Y44.307 E.00082
G1 X83.997 Y42.017 E.06419
G1 X83.481 Y42.017 E.01445
G1 X83.481 Y43.818 E.05048
G1 X83.242 Y43.751 E.00697
G1 X82.966 Y43.751 E.00774
G1 X82.966 Y42.017 E.04862
G1 X82.45 Y42.017 E.01445
G1 X82.45 Y43.751 E.04862
G1 X81.934 Y43.751 E.01445
G1 X81.934 Y42.017 E.04862
G1 X81.419 Y42.017 E.01445
G1 X81.419 Y43.817 E.05047
G1 X81.279 Y43.865 E.00412
G1 X81.172 Y43.933 E.00357
G1 X81.015 Y44.11 E.00663
G1 X80.903 Y44.305 E.00629
G1 X80.903 Y42.017 E.06414
G1 X80.388 Y42.017 E.01445
G1 X80.388 Y44.332 E.0649
G1 X80.134 Y44.332 E.0071
G1 X80.134 Y42.017 E.0649
G1 X80.23 Y42.017 E.00267
M204 S1000
;WIPE_START
G1 F8640
G1 X80.134 Y42.017 E-.02202
G1 X80.134 Y44.332 E-.53469
G1 X80.388 Y44.332 E-.05845
G1 X80.388 Y43.705 E-.14484
;WIPE_END
G1 E-.04 F2100
G1 Z.6 F720
G1 X87.713 Y46.016 F10800
G1 Z.2 F720
G1 E.8 F2100
M204 S800
;TYPE:Support material
;WIDTH:0.42
G1 F1200
G1 X92.345 Y46.016 E.14521
G1 X92.345 Y73.803 E.87126
G1 X94.66 Y73.803 E.0726
G1 X94.66 Y76.119 E.0726
G1 X122.448 Y76.119 E.87126
G1 X122.448 Y80.75 E.14521
G1 X131.71 Y80.75 E.29042
G1 X131.71 Y91.277 E.33006
G1 X122.448 Y91.277 E.29042
G1 X122.448 Y95.908 E.14521
G1 X94.66 Y95.908 E.87126
G1 X94.66 Y98.224 E.0726
G1 X92.345 Y98.224 E.0726
G1 X92.345 Y126.011 E.87126
G1 X87.713 Y126.011 E.14521
G1 X87.713 Y135.274 E.29042
G1 X77.187 Y135.274 E.33006
G1 X77.187 Y126.011 E.29042
M73 P1 R72
M73 Q1 S72
G1 X72.556 Y126.011 E.14521
G1 X72.556 Y98.224 E.87126
G1 X70.24 Y98.224 E.0726
G1 X70.24 Y95.908 E.0726
G1 X42.452 Y95.908 E.87126
G1 X42.452 Y91.277 E.14521
M73 P1 R71
G1 X33.19 Y91.277 E.29042
G1 X33.19 Y80.75 E.33006
G1 X42.452 Y80.75 E.29042
G1 X42.452 Y76.119 E.14521
G1 X70.24 Y76.119 E.87126
G1 X70.24 Y73.803 E.0726
G1 X72.556 Y73.803 E.0726
G1 X72.556 Y46.016 E.87126
G1 X77.187 Y46.016 E.14521
G1 X77.187 Y36.753 E.29042
G1 X87.713 Y36.753 E.33006
G1 X87.713 Y45.959 E.28865
M204 S1000
;WIPE_START
G1 F8640
G1 X87.713 Y42.668 E-.76
;WIPE_END
G1 E-.04 F2100
G1 Z.6 F720
G1 X83.716 Y127.468 F10800
G1 Z.2 F720
G1 E.8 F2100
M204 S800
G1 F1200
G1 X83.577 Y127.715 E.00888
G1 X83.491 Y127.809 E.00398
G1 X83.237 Y127.904 E.00851
G1 X81.688 Y127.908 E.04855
G1 X81.41 Y127.809 E.00927
G1 X81.324 Y127.715 E.00398
G1 X81.192 Y127.483 E.00836
G1 X81.141 Y127.327 E.00516
G1 X79.767 Y127.327 E.0431
G1 X79.767 Y130.378 E.09568
G1 X85.134 Y130.378 E.16828
G1 X85.134 Y127.327 E.09568
G1 X83.76 Y127.327 E.04306
G1 X83.733 Y127.414 E.00287
M204 S1000
;WIPE_START
G1 F8640
G1 X83.76 Y127.327 E-.02114
G1 X85.134 Y127.327 E-.31712
G1 X85.134 Y129.153 E-.42174
;WIPE_END
G1 E-.04 F2100
G1 Z.6 F720
G1 X79.767 Y123.431 F10800
G1 Z.2 F720
G1 E.8 F2100
M204 S800
G1 F1200
G1 X80.757 Y123.431 E.03105
G1 X80.762 Y125.845 E.07568
G1 X80.957 Y126.852 E.03215
G1 X81.07 Y127.074 E.00782
G1 X81.178 Y127.177 E.00467
G1 X81.488 Y127.348 E.01112
G1 X81.628 Y127.385 E.00454
G1 X83.273 Y127.385 E.05157
G1 X83.413 Y127.348 E.00454
G1 X83.723 Y127.177 E.01112
G1 X83.831 Y127.074 E.00467
G1 X83.945 Y126.852 E.00782
G1 X84.144 Y125.791 E.03385
G1 X84.144 Y123.431 E.07398
G1 X85.134 Y123.431 E.03101
G1 X85.134 Y118.064 E.16828
G1 X79.767 Y118.064 E.16828
G1 X79.767 Y123.375 E.16651
M204 S1000
;WIPE_START
G1 F8640
G1 X79.767 Y120.083 E-.76
;WIPE_END
G1 E-.04 F2100
G1 Z.6 F720
G1 X81.626 Y104.65 F10800
G1 Z.2 F720
G1 E.8 F2100
M204 S800
G1 F1200
G1 X81.482 Y104.689 E.00468
G1 X81.155 Y104.876 E.0118
G1 X81.046 Y104.987 E.00489
G1 X80.945 Y105.199 E.00735
G1 X80.757 Y106.237 E.03309
G1 X80.757 Y108.802 E.08041
G1 X79.767 Y108.802 E.03105
G1 X79.767 Y114.169 E.16828
G1 X85.134 Y114.169 E.16828
G1 X85.134 Y108.802 E.16828
G1 X84.144 Y108.802 E.03101
G1 X84.144 Y106.237 E.08041
G1 X83.956 Y105.199 E.03309
G1 X83.925 Y105.112 E.00288
G1 X83.856 Y104.987 E.0045
G1 X83.746 Y104.876 E.00489
G1 X83.42 Y104.689 E.0118
G1 X83.275 Y104.65 E.00468
G1 X81.683 Y104.65 E.04994
M204 S1000
G1 X79.767 Y104.906 F10800
M204 S800
G1 F1200
G1 X81.076 Y104.906 E.04105
G1 X81.184 Y104.544 E.01188
G1 X81.279 Y104.373 E.00611
G1 X81.439 Y104.21 E.00717
G1 X81.663 Y104.132 E.00743
G1 X83.213 Y104.128 E.04861
G1 X83.462 Y104.21 E.00821
G1 X83.622 Y104.373 E.00717
G1 X83.717 Y104.544 E.00611
G1 X83.825 Y104.906 E.01188
G1 X85.134 Y104.906 E.04102
G1 X85.134 Y101.855 E.09568
G1 X79.767 Y101.855 E.16828
G1 X79.767 Y104.85 E.0939
M204 S1000
;WIPE_START
G1 F8640
G1 X79.767 Y101.855 E-.69153
G1 X80.063 Y101.855 E-.06847
;WIPE_END
G1 E-.04 F2100
G1 Z.6 F720
G1 X54.295 Y88.697 F10800
G1 Z.2 F720
G1 E.8 F2100
M204 S800
G1 F1200
G1 X59.662 Y88.697 E.16828
G1 X59.662 Y87.708 E.03101
G1 X62.226 Y87.708 E.08041
G1 X63.265 Y87.52 E.03309
G1 X63.351 Y87.488 E.00288
G1 X63.477 Y87.419 E.0045
G1 X63.588 Y87.31 E.00489
G1 X63.775 Y86.983 E.0118
G1 X63.814 Y86.839 E.00468
G1 X63.814 Y85.189 E.05171
G1 X63.775 Y85.045 E.00468
G1 X63.588 Y84.719 E.0118
G1 X63.477 Y84.609 E.00489
G1 X63.351 Y84.54 E.0045
G1 X63.265 Y84.509 E.00288
G1 X62.279 Y84.325 E.03145
G1 X59.662 Y84.32 E.08205
G1 X59.662 Y83.33 E.03105
G1 X54.295 Y83.33 E.16828
G1 X54.295 Y88.641 E.16651
M204 S1000
G1 X114.501 Y88.697 F10800
M204 S800
G1 F1200
G1 X119.868 Y88.697 E.16828
G1 X119.868 Y87.707 E.03105
G1 X122.227 Y87.707 E.07398
G1 X123.288 Y87.507 E.03385
G1 X123.383 Y87.471 E.00318
G1 X123.51 Y87.393 E.00467
G1 X123.613 Y87.286 E.00467
G1 X123.785 Y86.976 E.01112
G1 X123.821 Y86.835 E.00454
G1 X123.821 Y85.191 E.05157
G1 X123.785 Y85.05 E.00454
G1 X123.613 Y84.74 E.01112
G1 X123.51 Y84.633 E.00467
G1 X123.383 Y84.555 E.00467
G1 X123.288 Y84.519 E.00318
G1 X122.282 Y84.324 E.03215
G1 X119.868 Y84.319 E.07568
G1 X119.868 Y83.33 E.03101
G1 X114.501 Y83.33 E.16828
G1 X114.501 Y88.641 E.16651
M204 S1000
;WIPE_START
G1 F8640
G1 X114.501 Y85.349 E-.76
;WIPE_END
G1 E-.04 F2100
G1 Z.6 F720
G1 X45.032 Y84.32 F10800
G1 Z.2 F720
G1 E.8 F2100
M204 S800
G1 F1200
G1 X42.673 Y84.32 E.07398
G1 X41.612 Y84.52 E.03385
G1 X41.39 Y84.634 E.00782
G1 X41.287 Y84.741 E.00467
G1 X41.115 Y85.052 E.01112
G1 X41.079 Y85.192 E.00454
G1 X41.079 Y86.836 E.05157
G1 X41.115 Y86.977 E.00454
G1 X41.287 Y87.287 E.01112
G1 X41.39 Y87.394 E.00467
G1 X41.612 Y87.508 E.00782
G1 X42.619 Y87.703 E.03215
G1 X45.032 Y87.708 E.07568
G1 X45.032 Y88.697 E.03101
G1 X50.399 Y88.697 E.16828
G1 X50.399 Y83.33 E.16828
G1 X45.032 Y83.33 E.16828
G1 X45.032 Y84.264 E.02927
M204 S1000
;WIPE_START
G1 F8640
G1 X45.032 Y83.33 E-.21559
G1 X47.39 Y83.33 E-.54441
;WIPE_END
G1 E-.04 F2100
G1 Z.6 F720
G1 X105.238 Y84.319 F10800
G1 Z.2 F720
G1 E.8 F2100
M204 S800
G1 F1200
G1 X102.674 Y84.319 E.08041
G1 X101.635 Y84.508 E.03309
G1 X101.424 Y84.608 E.00736
G1 X101.312 Y84.718 E.00489
G1 X101.125 Y85.044 E.0118
G1 X101.087 Y85.188 E.00468
G1 X101.087 Y86.838 E.05171
G1 X101.125 Y86.982 E.00468
G1 X101.312 Y87.308 E.01181
G1 X101.424 Y87.418 E.00489
G1 X101.636 Y87.518 E.00735
G1 X102.622 Y87.702 E.03145
G1 X105.238 Y87.707 E.08205
G1 X105.238 Y88.697 E.03105
G1 X110.605 Y88.697 E.16828
G1 X110.605 Y83.33 E.16828
G1 X105.238 Y83.33 E.16828
G1 X105.238 Y84.263 E.02924
M204 S1000
;WIPE_START
G1 F8640
G1 X105.238 Y83.33 E-.21534
G1 X107.597 Y83.33 E-.54466
;WIPE_END
G1 E-.04 F2100
G1 Z.6 F720
G1 X98.292 Y88.697 F10800
G1 Z.2 F720
G1 E.8 F2100
M204 S800
G1 F1200
G1 X101.343 Y88.697 E.09568
G1 X101.343 Y87.388 E.04105
G1 X100.98 Y87.279 E.01188
G1 X100.81 Y87.185 E.00611
G1 X100.647 Y87.024 E.00717
G1 X100.569 Y86.801 E.00743
G1 X100.564 Y85.25 E.04861
G1 X100.647 Y85.002 E.00821
G1 X100.81 Y84.841 E.00717
G1 X100.98 Y84.747 E.00611
G1 X101.343 Y84.638 E.01188
G1 X101.343 Y83.33 E.04102
G1 X98.292 Y83.33 E.09568
G1 X98.292 Y88.641 E.16651
M204 S1000
;WIPE_START
G1 F8640
G1 X98.292 Y85.349 E-.76
;WIPE_END
G1 E-.04 F2100
G1 Z.6 F720
G1 X63.557 Y84.639 F10800
G1 Z.2 F720
G1 E.8 F2100
M204 S800
G1 F1200
G1 X63.92 Y84.748 E.01188
G1 X64.09 Y84.842 E.00611
G1 X64.253 Y85.003 E.00717
G1 X64.336 Y85.251 E.00821
G1 X64.331 Y86.802 E.04861
G1 X64.253 Y87.025 E.00743
G1 X64.09 Y87.186 E.00717
G1 X63.92 Y87.28 E.00611
G1 X63.557 Y87.389 E.01188
